X:254
T:Example 2d.
M:3/8
L:1/16
S:Bruce & Emmett's Drummers and Fifers Guide (1862), p. 25
K:D
Af|d2d2 Af|d2d2 df|e2e2a2|f2d2 Af|d2d2 Af|d2d2 df|e2afeg|d4::
ef|gfefge|fedefd|edcdec|defga2|gfefge|fedefd|edcdec|d4:|
